X:8
T:Agatha
C:Erasmus Widmann, 1631
N:For the dance "Sarah" by Gary Roodman
%%MIDI gchord bbb
%%MIDI beat 100 95 80
S:Colin Hume's website,  colinhume.com  - chords can also be printed below the stave.
Q:1/2=112
M:3/2
R:Triple-time
L:1/4
K:Am
%%MIDI program 57     Trombone
%%MIDI chordprog 69   English Horn
%%MIDI bassprog 58    Tuba
|: "Am"c4 "E/G#"B2 | "Am"A4 "E"^G2 | "F"A3 Bc d | "E"e6 |\
"Am"e2 "Em"g2 "A"e2 | "Dm"f3 edc | "E"BA^GA-"E7"AG | "A"A6 :|
P:B
"G"B2 B2 B2 | "/"B3 AB^c | "Dm"d4 "A"^c2 | "D"d6 |\
"G"B2 "Am"c2 "G/B"d2 | "C"e^f ge "Am"ag | "B7"^fe^de-ed | "E"e6 |
P:C
"Am"c3 d/e/ "Dm"fe | "Bm"d3 e/^f/ "Em"g =f | "Am"e3 ^f/g/ "F"ag | "Dm"f3 edc | "E"BA^GA-"E7"AG | "A"A6 |]

